X:2716151
T:Glenn Towle
C:Dudley Laufman
S:Canterbury Country Dance Orchestra, $2Mistwold.$0 F&W Records, F&W 5, 1974.
H:Glenn Towle was a young and enthusiastic dancer who unfortunately died of
H:leukemia at a young age. Dudley wrote this tune in his honor.
H:There is also a transcription in G, from a recording of a Canterbury Orchestra
H:reunion in 1992. The melody is about the same but there are some differences
H:in chord choices.
N:From NH Country Dance (URL below), along with many New England, Canadian & Swedish
N:tunes, and resources for abc notation and New England traditional music and dance.
%
N: Note #1: To preserve formatting (font, spacing, etc.), use the
N: file header at the URL below; just follow accompanying instructions.
%
N: Note #2: This abc code is optimized for use with abcm2ps, which is used by
N: EasyABC and other abc apps. To abc2svg for display or printing look to see if there
N: is a file optimized for abc2svg. If not you may need to adjust the spacing in places.
%
Z:abc-transcription Peter Yarensky. I rely heavily on careful listening to the
Z:named sources aided by software to hear details. While not perfect, known
Z:substantial differences from other written sources receive careful attention.
Z:abc-copyright Peter Yarensky. You may reproduce this tune freely but
Z:please include the entire abc file including all the notes.
%%writefields HQSD
U:s = !slide!
U:t = !trill!
F:Tunes Home Page - https://fiddle-tunes.nhcountrydance.com/
F:abc Header & its Usage - https://fiddle-tunes.nhcountrydance.com/header-page/
M:2/4
L:1/16
R:March
G:Marches
N: Tune Tags ~ March, New England Repertoire, New Hampshire, Dudley Laufman
K:A
%%textfont Palatino-Italic 14
%%text In A, from the Mistwold recording
%%textfont Palatino-Roman 16
%%
   "A" A2>B2 c2c2   | "A" dcB2 A4      | "E7" G2A2 B2c2      | "E7" d4 c2B2 |\
   "A" A2>B2 c2c2   | "A" dcB2 A4      | "E7" G2A2 B2c2      |1 "A" A4 A2E2 :|2 "A" A4 A4 ||
|: "A" c2>d2 e2e2   | "A" f2e2 d2cd    | "E7" e2d2 c2Bc      | "E7" d2c2 B2E2 |\
   "A" c2>d2 e2e2.  | "A" f2e2 d2cd    | "E7" e2d2 c2B2     |1 "A" A4 A4 :|2 "A" A4 A2E2 ||
|: "A" c4- c2d2     | "A" e4 "D" d4    | "A/C#" c4 "E7/B" B4 | "A" A8 |\
   "A" c4- "A" c2"E7/B"d2 | "A/C#" e4 "D" d4 | "A/E" c8      | "E7" B8 |
   "A" c4- c2d2     | "A" e4 "D" d4    | "A/C#" c4 "E7/B" B4 | "A" A4 B2c2 |\
   "D" d4 "A/C#" c4 | "E7/B" B4 "A" A4 | "E7" G8 | "A" A8   :|%%vskip 20
%%vskip 20
%%text $1The bass line$0 goes nicely with the chords. Here's what Bob McQuillen was
%%text playing to the best of my ability to pick it out.
%%textfont Courier 16
%%begintext
%%
%% ||Â Â AEÂ Â Â Â |Â AEÂ |Â BEÂ Â |Â F#G#Â Â Â Â |Â AEÂ Â Â Â |Â AEÂ Â Â Â |Â BG#Â Â Â Â Â |Â AA
%% Â Â Â Â AEÂ Â Â Â |Â AEÂ |Â BEÂ Â |Â BG#Â Â Â Â Â |Â AE/F#Â |Â AC#Â Â Â |Â eG#Â Â Â Â Â |Â AAÂ ||
%%
%% ||Â Â AEÂ Â Â Â |Â AEÂ |Â BEÂ Â |Â F#EÂ Â Â Â Â |Â AC#Â Â Â |Â DD#Â Â Â |Â eG#Â Â Â Â Â |Â AA
%% Â Â Â Â AEÂ Â Â Â |Â AEÂ |Â BEÂ Â |Â e/DC#/BÂ |Â AEÂ Â Â Â |Â AC#/DÂ |Â eG# Â Â Â Â |Â AAÂ ||
%%
%% ||:Â AE/F#Â |Â ADÂ |Â C#BÂ |Â AEÂ Â Â Â Â Â |Â AA/BÂ Â |Â C#DÂ Â Â |Â ee/f#Â Â Â |Â e/D/C#/B
%% Â Â Â Â AE/F#Â |Â ADÂ |Â C#BÂ |Â AB/C#Â Â Â |Â DC#Â Â Â |Â BAÂ Â Â Â |Â G#F#/G#Â |Â AAÂ :||
%%
%%endtext

